X:1
T:Will Jesus Find Us Watching?
T:William Howard Doane
T:Will Jesus Find Us Watching?
T:Public Domain
T:Public Domain
C:William Howard Doane
Z:Public Domain
%%score 1 2
L:1/8
M:4/4
K:Bb
V:1 treble 
V:2 bass 
V:1
 [DF]2 [DF]>[EG] [DF]2 [DB][Ec] | [Fd]2 [FB]2 [EG] [GB]3 | [DF][^C=E][DF][_EG] [DF]2 [FB]2 | %3
w: 1.~When Je- sus comes to re-|ward His ser- vants,|Whe- ther it be noon or|
w: 2.~If, at the dawn of the|ear- ly morn- ing,|He shall call us one by|
w: 3.~Have we been true to the|trust He left us?|Do we seek to do our|
w: 4.~Bless- èd are those whom the|Lord finds watch- ing,|In His glo- ry they shall|
 [Fc]6 | [DF]2 [DF]>[EG] [DF]2 [DB][Ec] | [Fd]2 [FB]2 [EG] [GB]3 | F[DB][FB][Gc] [Fd]2 [Ec]2 | %7
w: night,|Faith- ful to Him will He|find us watch- ing,|With our lamps all trimmed and|
w: one,|When to the Lord we re-|store our tal- ents,|Will He an- swer thee— “Well|
w: best?|If in our hearts there is|naught con- demns us,|We shall have a glor- ious|
w: share;|If He shall come at the|dawn or mid- night,|Will He find us watch- ing|
 [DB]6 ||"^Refrain" [Fc]2 [Fc]>[Fd] [Fc]2 [EF]>[EG] | [DF] [DB]3 [Fd] [DB]3 | %10
w: bright?|||
w: done”?|O can we say we are|rea- dy, bro- ther?|
w: rest.|||
w: there?|||
 [EG][GB][FA][EG] [DF]2 [FB]2 | [Fc]6 | [DF]2 [DF]>[EG] [DF]2 [DB][Ec] | [Fd]2 [FB]2 [EG] [GB]3 | %14
w: ||||
w: Rea- dy for the soul’s bright|home?|Say, will He find you and|me still watch- ing,|
w: ||||
w: ||||
 F F3 [DB][DB][FB][Gc] | [Fd]2 [Ec]2 [DB]4 |] %16
w: ||
w: Wait- ing, wait- ing when the|Lord shall come?|
w: ||
w: ||
V:2
 [B,,B,]2 [B,,B,]>[B,,A,] [B,,B,]2 [B,,B,][B,,B,] | [B,,B,]2 [D,B,]2 [E,B,] [E,B,]3 | %2
 [B,,B,][B,,B,][B,,B,][B,,B,] [B,,B,]2 [D,B,]2 | [F,A,]6 | %4
 [B,,B,]2 [B,,B,]>[B,,B,] [B,,B,]2 [B,,B,][B,,B,] | [B,,B,]2 [D,B,]2 [E,B,] [E,B,]3 | %6
 [D,B,][G,B,][D,B,][E,B,] [F,B,]2 [F,A,]2 | [B,,B,]6 || %8
 [F,A,]2 [F,A,]>[F,B,] [F,A,]2 [F,A,]>[F,A,] | [B,,B,] [B,,B,]3 [B,,B,] [B,,B,]3 | %10
 [E,B,][E,B,][E,B,][E,B,] [B,,B,]2 [D,B,]2 | [F,A,]6 | %12
 [B,,B,]2 [B,,B,]>[B,,B,] [B,,B,]2 [B,,B,][B,,B,] | [B,,B,]2 [D,B,]2 [E,B,] [E,B,]3 | %14
 [D,B,] [D,B,]3 [G,B,][G,B,][D,B,][E,B,] | [F,B,]2 [F,A,]2 [B,,B,]4 |] %16

